X: 1
T: Joey Beaton's Reel
C: by Jerry Holland
P: reel
N: J.H. 1
S: Handwritten copy by Barbara McOwen in Concord Slow Scottish Session collection
F: http://ramshaw.info/slowjamtunes/PDF/Tunes_J/Joey_Beatons_Reel.pdf
M: C|
L: 1/8
K: Bm
"^A"|: a \
| "Bm"fBBA Bcde | "D"fddc dfaf | "A7"eA A/A/A cA A/A/A | "F#m"f/g/a ea "A"cAAa ||
| "Bm"fBBA Bcde | "D"fddc dfaf | "A" eA A/A/A cA A/A/A | "F#m"f/g/a ec "Bm"B3 :|
"^B"|: c \
| "Bm"BFBd BFBd | "A"cAEA cAec | "Bm"BFBd BFBd | "F#m"caec "Bm"B/B/B Bc ||
| "Bm"BFBd BFBd | "A"cAEA cAec | "G"defd fada | "A"cAec "Bm"B/B/B B :|
